X: 32936
T: Preppie Jim
R: slip jig
M: 9/8
K: Gmajor
D|G2B ded cBA|GBd gBd g2f|e2d d2c c2B|B2A AcB dcA|
G2B ded cBA|GBd g2d gag|fec edB dcA|GBA [1G3 G2:|2 G3DFA||
d2c c2B DFA|c2B B2A AGF|EAB cAG FED|GBG EcA Fdc|
BAG E2 ec2A|dcB G2gd2B|cBA BAG AGF|GAF G3G2||

